svgs/regular/bars-progress.svg

<svg xmlns="http://www.w3.org/2000/svg" viewBox="0 0 512 512"><!--! Font Awesome Pro 6.6.0 by @fontawesome - https://fontawesome.com License - https://fontawesome.com/license (Commercial License) Copyright 2024 Fonticons, Inc. --><path d="M464 112l0 64-144 0 0-64 144 0zM48 64C21.5 64 0 85.5 0 112l0 64c0 26.5 21.5 48 48 48l416 0c26.5 0 48-21.5 48-48l0-64c0-26.5-21.5-48-48-48L48 64zM464 336l0 64-272 0 0-64 272 0zM48 288c-26.5 0-48 21.5-48 48l0 64c0 26.5 21.5 48 48 48l416 0c26.5 0 48-21.5 48-48l0-64c0-26.5-21.5-48-48-48L48 288z"/></svg>

<svg xmlns="http://www.w3.org/2000/svg" viewBox="0 0 512 512"><!--! Font Awesome Pro 6.4.2 by @fontawesome - https://fontawesome.com License - https://fontawesome.com/license (Commercial License) Copyright 2023 Fonticons, Inc. --><path d="M464 112v64H320V112H464zM48 64C21.5 64 0 85.5 0 112v64c0 26.5 21.5 48 48 48H464c26.5 0 48-21.5 48-48V112c0-26.5-21.5-48-48-48H48zM464 336v64H192V336H464zM48 288c-26.5 0-48 21.5-48 48v64c0 26.5 21.5 48 48 48H464c26.5 0 48-21.5 48-48V336c0-26.5-21.5-48-48-48H48z"/></svg>
